X:1
T:Come, lovers, follow me - Morley
T:James Gibb editions
T:#
%%score { 1 | 2 } 3 4
L:1/8
Q:1/4=120
M:4/4
K:Bb
V:1 treble nm="Soprano I" snm="S"
V:2 treble 
V:3 treble nm="Alto" snm="A"
V:4 treble-8 nm="Tenor" snm="T"
V:1
 f8 |"^Come, lovers, follow me" BcdB c2 c2 | defd e3"^Thomas Morley\n(1557-1603)" d | c2 B2 c4 | %4
w: Come,|lov- ers, fol- low me, come,|lov- ers, fol- low me, and|leave this weep-|
[M:4/4] d2 Bc d4 | z2 de f2 g2 | fede f2 d2 | c2 FG A2 d2 | c2 f3 e e2 | c2 AB c2 c2 | %10
w: ing, fol- low me,|fol- low me, See|where the love- ly lit- tle|god, where the love- ly|god sweet\- * *|ly lies a- sleep- ing,|
 z2 GA B2 B2 | z2 FG AGAB | c2 GA BG c2 | A2 (B4 A2) | B8 | d8 | c8 | A2 AB c2 c2 | d4 d4 | %19
w: lies a- sleep- ing,|where the love- ly lit- tle|god, where the love- ly god|lies sleep\- *|ing;|Soft|then,|soft- ly for fear we|wake him,|
 z4 B2 Bc | d2 B2 e4 | d4 d2 de | f2 d2 g4 | f4 z4 | z4 z2 d2 | f3 f e2 c2 | d4 c2 c2 | %27
w: soft- ly for|fear we wake|him, soft- ly for|fear we wake|him,|And|to his bow he|take him, his|
[M:4/4] c2 c2 c4 x4 | c4 z2 c2 x4 |[M:4/4] c2 c3 c d2 |[M:4/4] e2 d2 c2 B2 x4 | %31
w: bow he take|him; O|then, if he but|spy us, if he|
[M:3/2] A2 (B4 A2) B4 |[M:3/2] z2 F2 F2 F3 F G2 |[M:3/2] (C2 DE) F2 z2 z2 f2 | %34
w: but spy * us,|whi- ther shall we then|fly * * us, whi-|
 =e2 f2- f_e d2 (c2 =B2) | x8 z4 |[M:4/4] c2 AB c4 | c4 z4 | z2 F2 G2 A2 | B2 z2 z2 F2 | %40
w: ther shall * we then fly *||us, shall we fly|us?|And if he|come, and|
 G2 A2 B2 z2 | z4 z2 c2 | d4 e4 | f4 d4 | c8 | d8 | z8 | f8- | f4 e2 d2 | c8 | c8- | c4 B2 A2 | %52
w: if he come,|and|if he|come up-|on|us,||Out|* well a-|way,|out|* well a-|
 G2 F2 G2 G2 | A6 c2 | d3 d (c2 BA | G2) F2 G4 | A8 | z4 z2 f2- | f2 de f2 Bc | d2 d2 c2 B2 | %60
w: way, out well a-|way, then|are we woe\- * *|* be- gone|us.|Hence|* then a- way, fol- low|me, a- way be-|
 A2 AB c4- | c2 B2 (B4- | B2 AG A4) | B2 f4 de | f2 Bc d2 =e2 | f4 F2 B2- | B2 A2 G4 | A2 c4 AB | %68
w: gone, fol- low me,|* dis- patch||us, hence then a-|way, fol- low me, a-|way be- gone,|* dis- patch|us; and that a-|
 c2 FG A2 d2 | c2 B4 A2 | B4 f4- | f2 de f2 Bc | de f2 e2 d2 | c2 cd e2 ee | d4 c4 | c2 B2 (B4- | %76
w: pace, ,~that a- pace, for|fear he catch|us; and|* that a- pace, lest he|* * * catch us,|and that a- pace ere he|wake, for|fear he catch|
 B4 A4) | !fermata!B8 |] %78
w: |us.|
V:2
 z4 F4 | GABG A2 A2 | B2 F2 GABG | A2 B4 A2 |[M:4/4] B2 de f4 | z2 Bc d2 e2 | defe d2 B2 | %7
w: Come,|lov- ers, fol- low me, come,|lov- ers, fol- low me, and|leave this weep-|ing, fol- low me,|fol- low me, See|where the love- ly lit- tle|
 A2 d2 c2 f2- | (fe d2 c2 B2) | A2 cd e2 e2 | z2 Bc dcde | f2 f2 cBcd | e4 d2 e2- | e2 d2 c4 | d8 | %15
w: lit- tle god, sweet\-||ly lies a- sleep- ing,|where the love- ly lit- tle|god, the love- ly lit- tle|god lies sweet\-|* ly sleep-|ing.|
 B8 | A8 | F2 FG A2 A2 | B4 B4 | z8 | z4 G2 GA | B2 F2 B4 | A2 B2 (B2 c2) | d4 z2 c2 | e3 e d2 B2 | %25
w: Soft|then,|soft- ly for fear we|wake him,||soft- ly for|fear we wake|him, we wake *|him, And|to his bow his|
 c2 d2 c4 | B2 B2 A3 A |[M:4/4] G2 A2 G4 A4- | A2 A2 G2 A3 G F2 |[M:4/4] (GA B2) A2 d2 | %30
w: bow he take|him, and to his|bow he take him;|* O then, if he but|spy * * us, if|
[M:4/4] c2 d2 e4 d4- |[M:3/2] x12 |[M:3/2] d4 z2 z4 B2 |[M:3/2] A2 B3 A (GA x4 | Bc) d2 c4- x4 | %35
w: he but spy us,||* whi-|ther shall we then *|* * fly us,|
 c2 BA G2 F2 z4 |[M:4/4] (=E2 F2) G4 | A4 z2 F2 | G2 A2 B2 z2 | z2 F2 G2 A2 | B2 z2 z2 f2 | %41
w: * whi- ther shall we|then * fly|us? And|if he come,|and if he|come, and|
 e2 d2 c4 | z2 F2 G3 G | A2 A2 (B4- | B2 AG A4) | B8 | d8- | d4 c2 B2 | A8 | _A8- | A4 G2 F2 | %51
w: if he come,|and if he|come up- on||us,|Out|* well a-|way,|out|* well a-|
 =E4 F4- | F4 =E4 | F6 A2 | B3 B A2 d2 | c2 =B2 c4 | c4 c4- | c2 AB c2 FG | A2 B2 A2 GA | %59
w: way, well|* a-|way, then|are we woe- be-|gone, be- gone|us.~ Hence|* then a- way, fol- low|me, be- gone, fol- low|
 B2 f4 de | f2 cd e4- | e2 d2 d2 cB | c8 | d4 z4 | z8 | z8 | z4 z2 c2- | c2 AB c2 FG | %68
w: me, hence then a-|way, fol- low me,|* dis- patch * *||us,|||and|* that a- pace, that a-|
 A2 d2 c2 f2- | fe d2 c4 | d4 d4- | d2 Bc d2 e2 | d2 c4 B2 | A2 AB c2 cc | B4 G4 | F4 F4 | F8 | %77
w: pace, for fear lest|* that he catch|us; and|* that a- pace, lest|he catch us,|and that a- pace ere he|wake, for|fear he|catch|
 !fermata!F8 |] %78
w: us.|
V:3
 z8 | z4 z2 F2 | B,CDB, E2 E2 | F2 G2 F4 |[M:4/4] B,4 z2 DE | F2 G2 F2 E2 | B4 z2 B,2 | %7
w: |Come,|lov- ers, fol- low me, and|leave this weep-|ing, fol- low|me, come fol- low|me, See|
 FEDE F2 B,2 | F2 FG _A2 B2 | F4 z2 CD | E2 E2 z2 B,C | DCDE F2"^see" F2 | CDEF G2 E2 | F8 | B,8 | %15
w: where the love- ly lit- tle|god, where the love- ly|god lies a-|sleep- ing, where the|love- ly lit- tle god, *|where the love- ly god lies|sleep-|ing.|
 F8 | F8 | z8 | z4 D2 DE | F2 D2 G4 | F2 G2 E4 | F8 | z4 z2 E2 | B3 B A2 F2 | c4 B3 G | %25
w: Soft|then,||soft- ly for|fear we wake|him, we wake|him,|And|to his bow he|take him; his|
 A2 B2 (B2 A2) | B2 F2 F3 F |[M:3/2] =E2 F2 (F2 E2) F4- | F2 F2 =E2 F3 E D2 | %29
w: bow he take *|him, and to his|bow he take * him;|* O then if he but|
[M:4/4] C2 B,2 F2 B,2 |[M:3/2] F2 D2 C4 B,4 |[M:3/2] z2 D2 C2 D3 C B,2 |[M:4/4] F4 D2 E2 x4 | %33
w: spy us, then if|he but spy us,|whi- ther shall we then|fly us, fly|
 F2 B2 G2 A2- x4 | AG F2 =E2 F2 x4 |[M:4/4] G2 (F4 =E2) | F2 F2 G2 A2 | B2 z2 z2 F2 | G2 A2 B2 z2 | %39
w: us, whi- ther shall|* we then fly, shall|we fly *|us? And if he|come, and|if he come,|
 z2 F2 G2 A2 | B2 B2 A2 G2 | F4 z2 B,2 | C3 C D2 E2 | F8 | F4 B4- | B4 A2 G2 | F8 | F8- | %48
w: and if he|come, and if he|come, and|if he come up-|on|us, Out|* well a-|way,|out|
 F4 E2 D2 | C6 F,2 | G,4 C4 | C4 C4 | C6 F2 | F3 B, C2 D2 | (=E2 F4 E2) | F8 | F6 DE | %57
w: * well a-|way, out|well a-|way, a-|way, then|are we woe- be-|gone * *|us.|Hence then a-|
 F2 B,C D2 E2 | B,2 B2 A2 G2 | F4 C4 | G4 G4 | F8 | B,4 z2 B2- | B2 GA B2 G2 | A2 A3 G F2 | %65
w: way, fol- low me, be|gone, hence fol- low|me, be-|gone, dis-|patch|us, hence|* then a- way, be-|gone, fol- low me,|
 =E2 (F4 E2) | F4 F4- | F2 DE F2 F2 | _A2 B2 F4 | B,8 | F4 D2 G2 | F2 _A4 F2- | F2 F2 G4 | F4 E4- | %74
w: dis- patch *|us; and|* that a- pace lest|that he catch|us;|and that a-|pace, lest if|* he wake|he catch|
 E2 E2 D4 | C8 | !fermata!D8 | x8 |] %78
w: * us, he|catch|us.||
V:4
 z8 | z8 | z8 | z8 |[M:4/4][K:treble-8] z8 | z8 | z8 | z8 | z8 | z8 | z8 | z8 | z8 | z8 | z8 | B8 | %16
w: |||||||||||||||Soft|
 F8 | z8 | z4 B2 Bc | d2 B2 e4 | d2 e2 c4 | B8 | z8 | z2 B2 f3 f | e2 c2 g4 | f2 d2 e2 f2 | %26
w: then,||soft- ly for|fear we wake|him, we wake|him,||And to his|bow he take|him, and to his|
 (Bcde f2) F2 |[M:3/2] c2 (AB) c4 F4- | F4 z2 z4 z2 |[M:4/4] z8 |[M:3/2] z12 | %31
w: bow, * * * * his|bow he * take him;||||
[M:3/2][K:treble-8] z2 B2 A2 B3 A G2 |[M:4/4] F2 B4 c2 x4 | d2 B2 c2 F2- x4 | F2 B2 c2 d2 x4 | %35
w: whi- ther shall we then|fly us, shall|we then fly us,|* shall we then|
[M:4/4][K:treble-8] c8 | F4 z4 | z8 | z8 | z4 z2 F2 | G4 A4 | B4 G4 | F8- | F8 | B8 | B8- | %46
w: fly|us?|||And|if he|come up-|on||us,|Out|
 B4 A2 G2 | F8 | F8- | F4 E2 D2 | C8 | C8 | F6 F2 | B3 G A2 B2 | c2 d2 c4 | F8 | z8 | z8 | z8 | %59
w: * well a-|way,|out|* well a-|way,|a-|way, then|are we woe- be-|gone, be- gone|us.||||
 z8 | z8 | z4 f4- | f2 de f2 Bc | d2 e2 B2 c2 | F2 f3 e d2 | c8 | F8 | z8 | z8 | z8 | B6 GA | %71
w: ||hence|* then a- way, fol- low|me, a- way be-|gone hence and dis-|patch|us;||||and that a-|
 B2 FG _A2 B2 | F4 C4 | D4 E4 | F8- | F8 | !fermata!B8 | x8 |] %78
w: pace, that a- pace, for|fear, for|fear he|catch||us.||

